report_00007_2020-12-11T15:55:29.892Z/cumulative-layout-shift/samples/pages+cached+noexternal+noimg/raw/values.svg

<svg width="640" height="490" xmlns="http://www.w3.org/2000/svg" xmlns:xlink="http://www.w3.org/1999/xlink"><path fill="#fff" d="M0 0h640v490H0z"/><defs><path id="d" stroke-width=".222" stroke="currentColor" d="M-1-1h2v2h-2z"/><path id="b" stroke-width=".222" stroke="currentColor" d="M0-1.33l-1.33 2h2.66z"/><path id="f" stroke-width=".222" stroke="currentColor" d="M0 1.33L1.265.411.782-1.067l-1.564-.009-.483 1.487z"/><use xlink:href="#b" id="c" stroke="currentColor" transform="rotate(180)"/><use xlink:href="#d" id="e" stroke="currentColor" transform="rotate(45)"/><circle id="a" stroke-width=".222" stroke="currentColor" cx="0" cy="0" r="1"/></defs><g fill="none" color="#000" stroke="currentColor"><path stroke="#000" d="M53.9 386.8h9m552.1 0h-9"/><text transform="translate(45.6 390.7)" stroke="none" fill="#000" font-family="Arial" font-size="12" text-anchor="end"><tspan>0.2</tspan></text></g><g fill="none" color="#000" stroke="currentColor"><path stroke="#000" d="M53.9 309.1h9m552.1 0h-9"/><text transform="translate(45.6 313)" stroke="none" fill="#000" font-family="Arial" font-size="12" text-anchor="end"><tspan>0.4</tspan></text></g><g fill="none" color="#000" stroke="currentColor"><path stroke="#000" d="M53.9 231.5h9m552.1 0h-9"/><text transform="translate(45.6 235.4)" stroke="none" fill="#000" font-family="Arial" font-size="12" text-anchor="end"><tspan>0.6</tspan></text></g><g fill="none" color="#000" stroke="currentColor"><path stroke="#000" d="M53.9 153.9h9m552.1 0h-9"/><text transform="translate(45.6 157.8)" stroke="none" fill="#000" font-family="Arial" font-size="12" text-anchor="end"><tspan>0.8</tspan></text></g><g fill="none" color="#000" stroke="currentColor"><path stroke="#000" d="M53.9 76.3h9m552.1 0h-9"/><text transform="translate(45.6 80.2)" stroke="none" fill="#000" font-family="Arial" font-size="12" text-anchor="end"><tspan>1</tspan></text></g><g fill="none" color="#000" stroke="currentColor"><path stroke="#000" d="M53.9 436v-9m0-408.9v9"/><text transform="translate(53.9 457.9)" stroke="none" fill="#000" font-family="Arial" font-size="12" text-anchor="middle"><tspan>0</tspan></text></g><g fill="none" color="#000" stroke="currentColor"><path stroke="#000" d="M110.6 436v-9m0-408.9v9"/><text transform="translate(110.6 457.9)" stroke="none" fill="#000" font-family="Arial" font-size="12" text-anchor="middle"><tspan>10</tspan></text></g><g fill="none" color="#000" stroke="currentColor"><path stroke="#000" d="M167.3 436v-9m0-408.9v9"/><text transform="translate(167.3 457.9)" stroke="none" fill="#000" font-family="Arial" font-size="12" text-anchor="middle"><tspan>20</tspan></text></g><g fill="none" color="#000" stroke="currentColor"><path stroke="#000" d="M223.9 436v-9m0-408.9v9"/><text transform="translate(223.9 457.9)" stroke="none" fill="#000" font-family="Arial" font-size="12" text-anchor="middle"><tspan>30</tspan></text></g><g fill="none" color="#000" stroke="currentColor"><path stroke="#000" d="M280.6 436v-9m0-408.9v9"/><text transform="translate(280.6 457.9)" stroke="none" fill="#000" font-family="Arial" font-size="12" text-anchor="middle"><tspan>40</tspan></text></g><g fill="none" color="#000" stroke="currentColor"><path stroke="#000" d="M337.3 436v-9m0-408.9v9"/><text transform="translate(337.3 457.9)" stroke="none" fill="#000" font-family="Arial" font-size="12" text-anchor="middle"><tspan>50</tspan></text></g><g fill="none" color="#000" stroke="currentColor"><path stroke="#000" d="M394 436v-9m0-408.9v9"/><text transform="translate(394 457.9)" stroke="none" fill="#000" font-family="Arial" font-size="12" text-anchor="middle"><tspan>60</tspan></text></g><g fill="none" color="#000" stroke="currentColor"><path stroke="#000" d="M450.6 436v-9m0-408.9v9"/><text transform="translate(450.6 457.9)" stroke="none" fill="#000" font-family="Arial" font-size="12" text-anchor="middle"><tspan>70</tspan></text></g><g fill="none" color="#000" stroke="currentColor"><path stroke="#000" d="M507.3 436v-9m0-408.9v9"/><text transform="translate(507.3 457.9)" stroke="none" fill="#000" font-family="Arial" font-size="12" text-anchor="middle"><tspan>80</tspan></text></g><g fill="none" color="#000" stroke="currentColor"><path stroke="#000" d="M564 436v-9m0-408.9v9"/><text transform="translate(564 457.9)" stroke="none" fill="#000" font-family="Arial" font-size="12" text-anchor="middle"><tspan>90</tspan></text></g><path stroke="#000" d="M53.9 18.1V436H615V18.1H53.9z" fill="none" color="#000"/><text transform="translate(175.7 475.9)" stroke="none" fill="#000" font-family="Arial" font-size="12" text-anchor="end" color="#000"><tspan>raw</tspan></text><path stroke="#9400D3" d="M184 472h42.2M53.9 317l5.7 111 5.6-44.9 5.7 44.9 5.7-111 5.6 73.4 5.7-11.7 5.7 49.3 5.6-37.6 5.7-73.4 5.7 73.4 5.6 37.6 5.7-37.6 5.7-49.2 5.6 86.8 5.7-37.6h11.4l5.6-73.4 5.7 24.2 5.7 49.2h5.6l5.7-7.3 5.7 7.3 5.6 37.6 5.7-37.6h5.7l5.6-11.7 5.7 11.7h5.7l5.6-73.4 5.7 66.1 5.7 44.9 5.6-37.6 5.7-11.7 5.7 49.3 5.6-44.9 5.7-66.1 5.7 61.7 5.6 11.7 5.7-7.3h5.7l5.6 7.3 5.7-73.4 5.7 24.2 5.6 53.6 5.7-4.4 5.7-7.3 5.6 7.3h11.4L343 428l5.6-86.8 5.7 37.5 5.7 11.7 5.6-7.3h5.7l5.7 7.3 5.6 37.6 5.7-37.6L394 317l5.6 66.1H411l5.6 7.3h5.7l5.7-7.3 5.6 44.9 5.7-401.9 5.7 315.1 5.6-24.2 5.7 73.4 5.7-7.3 5.6 11.7 5.7-4.4L479 428l5.6-111 5.7 73.4L496 317l5.6 111 5.7-37.6 5.7-11.7 5.6 11.7h5.7l5.7-7.3h22.7l5.6 44.9 5.7-111 5.7 73.4 5.6 4.4L581 317l5.7 73.4 5.6-11.7L598 428l5.7-111 5.6 73.4 5.7-7.3" fill="none" color="#000"/><text transform="translate(375.6 475.9)" stroke="none" fill="#000" font-family="Arial" font-size="12" text-anchor="end" color="#000"><tspan>score p10=0.1</tspan></text><path stroke="#009E73" d="M383.9 472h42.2M53.9 425.6H615" fill="none" color="#000"/><text transform="translate(575.5 475.9)" stroke="none" fill="#000" font-family="Arial" font-size="12" text-anchor="end" color="#000"><tspan>score median=0.25</tspan></text><path stroke="#56B4E9" d="M583.8 472H626M53.9 367.4H615" fill="none" color="#000"/><g fill="none" color="#000" stroke="currentColor"><path stroke="#000" d="M53.9 18.1V436H615V18.1H53.9z"/></g></svg>

<?xml version="1.0" encoding="utf-8"  standalone="no"?>
<svg 
 width="640" height="490"
 viewBox="0 0 640 490"
 xmlns="http://www.w3.org/2000/svg"
 xmlns:xlink="http://www.w3.org/1999/xlink"
>

<title>Gnuplot</title>
<desc>Produced by GNUPLOT 5.4 patchlevel 0 </desc>

<g id="gnuplot_canvas">

<rect x="0" y="0" width="640" height="490" fill="#ffffff"/>
<defs>

	<circle id='gpDot' r='0.5' stroke-width='0.5' stroke='currentColor'/>
	<path id='gpPt0' stroke-width='0.222' stroke='currentColor' d='M-1,0 h2 M0,-1 v2'/>
	<path id='gpPt1' stroke-width='0.222' stroke='currentColor' d='M-1,-1 L1,1 M1,-1 L-1,1'/>
	<path id='gpPt2' stroke-width='0.222' stroke='currentColor' d='M-1,0 L1,0 M0,-1 L0,1 M-1,-1 L1,1 M-1,1 L1,-1'/>
	<rect id='gpPt3' stroke-width='0.222' stroke='currentColor' x='-1' y='-1' width='2' height='2'/>
	<rect id='gpPt4' stroke-width='0.222' stroke='currentColor' fill='currentColor' x='-1' y='-1' width='2' height='2'/>
	<circle id='gpPt5' stroke-width='0.222' stroke='currentColor' cx='0' cy='0' r='1'/>
	<use xlink:href='#gpPt5' id='gpPt6' fill='currentColor' stroke='none'/>
	<path id='gpPt7' stroke-width='0.222' stroke='currentColor' d='M0,-1.33 L-1.33,0.67 L1.33,0.67 z'/>
	<use xlink:href='#gpPt7' id='gpPt8' fill='currentColor' stroke='none'/>
	<use xlink:href='#gpPt7' id='gpPt9' stroke='currentColor' transform='rotate(180)'/>
	<use xlink:href='#gpPt9' id='gpPt10' fill='currentColor' stroke='none'/>
	<use xlink:href='#gpPt3' id='gpPt11' stroke='currentColor' transform='rotate(45)'/>
	<use xlink:href='#gpPt11' id='gpPt12' fill='currentColor' stroke='none'/>
	<path id='gpPt13' stroke-width='0.222' stroke='currentColor' d='M0,1.330 L1.265,0.411 L0.782,-1.067 L-0.782,-1.076 L-1.265,0.411 z'/>
	<use xlink:href='#gpPt13' id='gpPt14' fill='currentColor' stroke='none'/>
	<filter id='textbox' filterUnits='objectBoundingBox' x='0' y='0' height='1' width='1'>
	  <feFlood flood-color='#FFFFFF' flood-opacity='1' result='bgnd'/>
	  <feComposite in='SourceGraphic' in2='bgnd' operator='atop'/>
	</filter>
	<filter id='greybox' filterUnits='objectBoundingBox' x='0' y='0' height='1' width='1'>
	  <feFlood flood-color='lightgrey' flood-opacity='1' result='grey'/>
	  <feComposite in='SourceGraphic' in2='grey' operator='atop'/>
	</filter>
</defs>
<g fill="none" color="#FFFFFF" stroke="black" stroke-width="1.00" stroke-linecap="butt" stroke-linejoin="miter">
</g>
<g fill="none" color="black" stroke="currentColor" stroke-width="1.00" stroke-linecap="butt" stroke-linejoin="miter">
	<path stroke='black'  d='M53.9,386.8 L62.9,386.8 M615.0,386.8 L606.0,386.8  '/>	<g transform="translate(45.6,390.7)" stroke="none" fill="black" font-family="Arial" font-size="12.00"  text-anchor="end">
		<text><tspan font-family="Arial" > 0.2</tspan></text>
	</g>
</g>
<g fill="none" color="black" stroke="currentColor" stroke-width="1.00" stroke-linecap="butt" stroke-linejoin="miter">
	<path stroke='black'  d='M53.9,309.1 L62.9,309.1 M615.0,309.1 L606.0,309.1  '/>	<g transform="translate(45.6,313.0)" stroke="none" fill="black" font-family="Arial" font-size="12.00"  text-anchor="end">
		<text><tspan font-family="Arial" > 0.4</tspan></text>
	</g>
</g>
<g fill="none" color="black" stroke="currentColor" stroke-width="1.00" stroke-linecap="butt" stroke-linejoin="miter">
	<path stroke='black'  d='M53.9,231.5 L62.9,231.5 M615.0,231.5 L606.0,231.5  '/>	<g transform="translate(45.6,235.4)" stroke="none" fill="black" font-family="Arial" font-size="12.00"  text-anchor="end">
		<text><tspan font-family="Arial" > 0.6</tspan></text>
	</g>
</g>
<g fill="none" color="black" stroke="currentColor" stroke-width="1.00" stroke-linecap="butt" stroke-linejoin="miter">
	<path stroke='black'  d='M53.9,153.9 L62.9,153.9 M615.0,153.9 L606.0,153.9  '/>	<g transform="translate(45.6,157.8)" stroke="none" fill="black" font-family="Arial" font-size="12.00"  text-anchor="end">
		<text><tspan font-family="Arial" > 0.8</tspan></text>
	</g>
</g>
<g fill="none" color="black" stroke="currentColor" stroke-width="1.00" stroke-linecap="butt" stroke-linejoin="miter">
	<path stroke='black'  d='M53.9,76.3 L62.9,76.3 M615.0,76.3 L606.0,76.3  '/>	<g transform="translate(45.6,80.2)" stroke="none" fill="black" font-family="Arial" font-size="12.00"  text-anchor="end">
		<text><tspan font-family="Arial" > 1</tspan></text>
	</g>
</g>
<g fill="none" color="black" stroke="currentColor" stroke-width="1.00" stroke-linecap="butt" stroke-linejoin="miter">
	<path stroke='black'  d='M53.9,436.0 L53.9,427.0 M53.9,18.1 L53.9,27.1  '/>	<g transform="translate(53.9,457.9)" stroke="none" fill="black" font-family="Arial" font-size="12.00"  text-anchor="middle">
		<text><tspan font-family="Arial" > 0</tspan></text>
	</g>
</g>
<g fill="none" color="black" stroke="currentColor" stroke-width="1.00" stroke-linecap="butt" stroke-linejoin="miter">
	<path stroke='black'  d='M110.6,436.0 L110.6,427.0 M110.6,18.1 L110.6,27.1  '/>	<g transform="translate(110.6,457.9)" stroke="none" fill="black" font-family="Arial" font-size="12.00"  text-anchor="middle">
		<text><tspan font-family="Arial" > 10</tspan></text>
	</g>
</g>
<g fill="none" color="black" stroke="currentColor" stroke-width="1.00" stroke-linecap="butt" stroke-linejoin="miter">
	<path stroke='black'  d='M167.3,436.0 L167.3,427.0 M167.3,18.1 L167.3,27.1  '/>	<g transform="translate(167.3,457.9)" stroke="none" fill="black" font-family="Arial" font-size="12.00"  text-anchor="middle">
		<text><tspan font-family="Arial" > 20</tspan></text>
	</g>
</g>
<g fill="none" color="black" stroke="currentColor" stroke-width="1.00" stroke-linecap="butt" stroke-linejoin="miter">
	<path stroke='black'  d='M223.9,436.0 L223.9,427.0 M223.9,18.1 L223.9,27.1  '/>	<g transform="translate(223.9,457.9)" stroke="none" fill="black" font-family="Arial" font-size="12.00"  text-anchor="middle">
		<text><tspan font-family="Arial" > 30</tspan></text>
	</g>
</g>
<g fill="none" color="black" stroke="currentColor" stroke-width="1.00" stroke-linecap="butt" stroke-linejoin="miter">
	<path stroke='black'  d='M280.6,436.0 L280.6,427.0 M280.6,18.1 L280.6,27.1  '/>	<g transform="translate(280.6,457.9)" stroke="none" fill="black" font-family="Arial" font-size="12.00"  text-anchor="middle">
		<text><tspan font-family="Arial" > 40</tspan></text>
	</g>
</g>
<g fill="none" color="black" stroke="currentColor" stroke-width="1.00" stroke-linecap="butt" stroke-linejoin="miter">
	<path stroke='black'  d='M337.3,436.0 L337.3,427.0 M337.3,18.1 L337.3,27.1  '/>	<g transform="translate(337.3,457.9)" stroke="none" fill="black" font-family="Arial" font-size="12.00"  text-anchor="middle">
		<text><tspan font-family="Arial" > 50</tspan></text>
	</g>
</g>
<g fill="none" color="black" stroke="currentColor" stroke-width="1.00" stroke-linecap="butt" stroke-linejoin="miter">
	<path stroke='black'  d='M394.0,436.0 L394.0,427.0 M394.0,18.1 L394.0,27.1  '/>	<g transform="translate(394.0,457.9)" stroke="none" fill="black" font-family="Arial" font-size="12.00"  text-anchor="middle">
		<text><tspan font-family="Arial" > 60</tspan></text>
	</g>
</g>
<g fill="none" color="black" stroke="currentColor" stroke-width="1.00" stroke-linecap="butt" stroke-linejoin="miter">
	<path stroke='black'  d='M450.6,436.0 L450.6,427.0 M450.6,18.1 L450.6,27.1  '/>	<g transform="translate(450.6,457.9)" stroke="none" fill="black" font-family="Arial" font-size="12.00"  text-anchor="middle">
		<text><tspan font-family="Arial" > 70</tspan></text>
	</g>
</g>
<g fill="none" color="black" stroke="currentColor" stroke-width="1.00" stroke-linecap="butt" stroke-linejoin="miter">
	<path stroke='black'  d='M507.3,436.0 L507.3,427.0 M507.3,18.1 L507.3,27.1  '/>	<g transform="translate(507.3,457.9)" stroke="none" fill="black" font-family="Arial" font-size="12.00"  text-anchor="middle">
		<text><tspan font-family="Arial" > 80</tspan></text>
	</g>
</g>
<g fill="none" color="black" stroke="currentColor" stroke-width="1.00" stroke-linecap="butt" stroke-linejoin="miter">
	<path stroke='black'  d='M564.0,436.0 L564.0,427.0 M564.0,18.1 L564.0,27.1  '/>	<g transform="translate(564.0,457.9)" stroke="none" fill="black" font-family="Arial" font-size="12.00"  text-anchor="middle">
		<text><tspan font-family="Arial" > 90</tspan></text>
	</g>
</g>
<g fill="none" color="black" stroke="currentColor" stroke-width="1.00" stroke-linecap="butt" stroke-linejoin="miter">
</g>
<g fill="none" color="black" stroke="currentColor" stroke-width="1.00" stroke-linecap="butt" stroke-linejoin="miter">
	<path stroke='black'  d='M53.9,18.1 L53.9,436.0 L615.0,436.0 L615.0,18.1 L53.9,18.1 Z  '/></g>
<g fill="none" color="black" stroke="currentColor" stroke-width="1.00" stroke-linecap="butt" stroke-linejoin="miter">
</g>
	<g id="gnuplot_plot_1" ><title>raw</title>
<g fill="none" color="black" stroke="currentColor" stroke-width="1.00" stroke-linecap="butt" stroke-linejoin="miter">
	<g transform="translate(175.7,475.9)" stroke="none" fill="black" font-family="Arial" font-size="12.00"  text-anchor="end">
		<text><tspan font-family="Arial" >raw</tspan></text>
	</g>
</g>
<g fill="none" color="black" stroke="currentColor" stroke-width="1.00" stroke-linecap="butt" stroke-linejoin="miter">
	<path stroke='rgb(148,   0, 211)'  d='M184.0,472.0 L226.2,472.0 M53.9,317.0 L59.6,428.0 L65.2,383.1 L70.9,428.0 L76.6,317.0 L82.2,390.4
		L87.9,378.7 L93.6,428.0 L99.2,390.4 L104.9,317.0 L110.6,390.4 L116.2,428.0 L121.9,390.4 L127.6,341.2
		L133.2,428.0 L138.9,390.4 L144.6,390.4 L150.3,390.4 L155.9,317.0 L161.6,341.2 L167.3,390.4 L172.9,390.4
		L178.6,383.1 L184.3,390.4 L189.9,428.0 L195.6,390.4 L201.3,390.4 L206.9,378.7 L212.6,390.4 L218.3,390.4
		L223.9,317.0 L229.6,383.1 L235.3,428.0 L240.9,390.4 L246.6,378.7 L252.3,428.0 L257.9,383.1 L263.6,317.0
		L269.3,378.7 L274.9,390.4 L280.6,383.1 L286.3,383.1 L291.9,390.4 L297.6,317.0 L303.3,341.2 L308.9,394.8
		L314.6,390.4 L320.3,383.1 L325.9,390.4 L331.6,390.4 L337.3,390.4 L343.0,428.0 L348.6,341.2 L354.3,378.7
		L360.0,390.4 L365.6,383.1 L371.3,383.1 L377.0,390.4 L382.6,428.0 L388.3,390.4 L394.0,317.0 L399.6,383.1
		L405.3,383.1 L411.0,383.1 L416.6,390.4 L422.3,390.4 L428.0,383.1 L433.6,428.0 L439.3,26.1 L445.0,341.2
		L450.6,317.0 L456.3,390.4 L462.0,383.1 L467.6,394.8 L473.3,390.4 L479.0,428.0 L484.6,317.0 L490.3,390.4
		L496.0,317.0 L501.6,428.0 L507.3,390.4 L513.0,378.7 L518.6,390.4 L524.3,390.4 L530.0,383.1 L535.7,383.1
		L541.3,383.1 L547.0,383.1 L552.7,383.1 L558.3,428.0 L564.0,317.0 L569.7,390.4 L575.3,394.8 L581.0,317.0
		L586.7,390.4 L592.3,378.7 L598.0,428.0 L603.7,317.0 L609.3,390.4 L615.0,383.1  '/></g>
	</g>
	<g id="gnuplot_plot_2" ><title>score p10=0.1</title>
<g fill="none" color="black" stroke="currentColor" stroke-width="1.00" stroke-linecap="butt" stroke-linejoin="miter">
	<g transform="translate(375.6,475.9)" stroke="none" fill="black" font-family="Arial" font-size="12.00"  text-anchor="end">
		<text><tspan font-family="Arial" >score p10=0.1</tspan></text>
	</g>
</g>
<g fill="none" color="black" stroke="currentColor" stroke-width="1.00" stroke-linecap="butt" stroke-linejoin="miter">
	<path stroke='rgb(  0, 158, 115)'  d='M383.9,472.0 L426.1,472.0 M53.9,425.6 L59.6,425.6 L65.2,425.6 L70.9,425.6 L76.6,425.6 L82.2,425.6
		L87.9,425.6 L93.6,425.6 L99.2,425.6 L104.9,425.6 L110.6,425.6 L116.2,425.6 L121.9,425.6 L127.6,425.6
		L133.2,425.6 L138.9,425.6 L144.6,425.6 L150.3,425.6 L155.9,425.6 L161.6,425.6 L167.3,425.6 L172.9,425.6
		L178.6,425.6 L184.3,425.6 L189.9,425.6 L195.6,425.6 L201.3,425.6 L206.9,425.6 L212.6,425.6 L218.3,425.6
		L223.9,425.6 L229.6,425.6 L235.3,425.6 L240.9,425.6 L246.6,425.6 L252.3,425.6 L257.9,425.6 L263.6,425.6
		L269.3,425.6 L274.9,425.6 L280.6,425.6 L286.3,425.6 L291.9,425.6 L297.6,425.6 L303.3,425.6 L308.9,425.6
		L314.6,425.6 L320.3,425.6 L325.9,425.6 L331.6,425.6 L337.3,425.6 L343.0,425.6 L348.6,425.6 L354.3,425.6
		L360.0,425.6 L365.6,425.6 L371.3,425.6 L377.0,425.6 L382.6,425.6 L388.3,425.6 L394.0,425.6 L399.6,425.6
		L405.3,425.6 L411.0,425.6 L416.6,425.6 L422.3,425.6 L428.0,425.6 L433.6,425.6 L439.3,425.6 L445.0,425.6
		L450.6,425.6 L456.3,425.6 L462.0,425.6 L467.6,425.6 L473.3,425.6 L479.0,425.6 L484.6,425.6 L490.3,425.6
		L496.0,425.6 L501.6,425.6 L507.3,425.6 L513.0,425.6 L518.6,425.6 L524.3,425.6 L530.0,425.6 L535.7,425.6
		L541.3,425.6 L547.0,425.6 L552.7,425.6 L558.3,425.6 L564.0,425.6 L569.7,425.6 L575.3,425.6 L581.0,425.6
		L586.7,425.6 L592.3,425.6 L598.0,425.6 L603.7,425.6 L609.3,425.6 L615.0,425.6  '/></g>
	</g>
	<g id="gnuplot_plot_3" ><title>score median=0.25</title>
<g fill="none" color="black" stroke="currentColor" stroke-width="1.00" stroke-linecap="butt" stroke-linejoin="miter">
	<g transform="translate(575.5,475.9)" stroke="none" fill="black" font-family="Arial" font-size="12.00"  text-anchor="end">
		<text><tspan font-family="Arial" >score median=0.25</tspan></text>
	</g>
</g>
<g fill="none" color="black" stroke="currentColor" stroke-width="1.00" stroke-linecap="butt" stroke-linejoin="miter">
	<path stroke='rgb( 86, 180, 233)'  d='M583.8,472.0 L626.0,472.0 M53.9,367.4 L59.6,367.4 L65.2,367.4 L70.9,367.4 L76.6,367.4 L82.2,367.4
		L87.9,367.4 L93.6,367.4 L99.2,367.4 L104.9,367.4 L110.6,367.4 L116.2,367.4 L121.9,367.4 L127.6,367.4
		L133.2,367.4 L138.9,367.4 L144.6,367.4 L150.3,367.4 L155.9,367.4 L161.6,367.4 L167.3,367.4 L172.9,367.4
		L178.6,367.4 L184.3,367.4 L189.9,367.4 L195.6,367.4 L201.3,367.4 L206.9,367.4 L212.6,367.4 L218.3,367.4
		L223.9,367.4 L229.6,367.4 L235.3,367.4 L240.9,367.4 L246.6,367.4 L252.3,367.4 L257.9,367.4 L263.6,367.4
		L269.3,367.4 L274.9,367.4 L280.6,367.4 L286.3,367.4 L291.9,367.4 L297.6,367.4 L303.3,367.4 L308.9,367.4
		L314.6,367.4 L320.3,367.4 L325.9,367.4 L331.6,367.4 L337.3,367.4 L343.0,367.4 L348.6,367.4 L354.3,367.4
		L360.0,367.4 L365.6,367.4 L371.3,367.4 L377.0,367.4 L382.6,367.4 L388.3,367.4 L394.0,367.4 L399.6,367.4
		L405.3,367.4 L411.0,367.4 L416.6,367.4 L422.3,367.4 L428.0,367.4 L433.6,367.4 L439.3,367.4 L445.0,367.4
		L450.6,367.4 L456.3,367.4 L462.0,367.4 L467.6,367.4 L473.3,367.4 L479.0,367.4 L484.6,367.4 L490.3,367.4
		L496.0,367.4 L501.6,367.4 L507.3,367.4 L513.0,367.4 L518.6,367.4 L524.3,367.4 L530.0,367.4 L535.7,367.4
		L541.3,367.4 L547.0,367.4 L552.7,367.4 L558.3,367.4 L564.0,367.4 L569.7,367.4 L575.3,367.4 L581.0,367.4
		L586.7,367.4 L592.3,367.4 L598.0,367.4 L603.7,367.4 L609.3,367.4 L615.0,367.4  '/></g>
	</g>
<g fill="none" color="#FFFFFF" stroke="rgb( 86, 180, 233)" stroke-width="2.00" stroke-linecap="butt" stroke-linejoin="miter">
</g>
<g fill="none" color="black" stroke="currentColor" stroke-width="2.00" stroke-linecap="butt" stroke-linejoin="miter">
</g>
<g fill="none" color="black" stroke="black" stroke-width="1.00" stroke-linecap="butt" stroke-linejoin="miter">
</g>
<g fill="none" color="black" stroke="currentColor" stroke-width="1.00" stroke-linecap="butt" stroke-linejoin="miter">
	<path stroke='black'  d='M53.9,18.1 L53.9,436.0 L615.0,436.0 L615.0,18.1 L53.9,18.1 Z  '/></g>
<g fill="none" color="black" stroke="currentColor" stroke-width="1.00" stroke-linecap="butt" stroke-linejoin="miter">
</g>
</g>
</svg>
